icons/svg/cube-unfolded.svg

<svg xmlns="http://www.w3.org/2000/svg" version="1.1" baseProfile="full" width="24" height="24" viewBox="0 0 24.00 24.00" xml:space="preserve"><path fill="#000" fill-opacity="1" stroke-linejoin="round" d="M6 9V4h7v5h10v7h-5v5h-7v-5H1V9h5zm10 7h-3v3h3v-3zM8 9h3V6H8v3zm-2 5v-3H3v3h3zm12-3v3h3v-3h-3zm-5 0v3h3v-3h-3zm-5 0v3h3v-3H8z"/></svg>

﻿<?xml version="1.0" encoding="utf-8"?>
<!DOCTYPE svg PUBLIC "-//W3C//DTD SVG 1.1//EN" "http://www.w3.org/Graphics/SVG/1.1/DTD/svg11.dtd">
<svg xmlns="http://www.w3.org/2000/svg" xmlns:xlink="http://www.w3.org/1999/xlink" version="1.1" baseProfile="full" width="24" height="24" viewBox="0 0 24.00 24.00" enable-background="new 0 0 24.00 24.00" xml:space="preserve">
	<path fill="#000000" fill-opacity="1" stroke-linejoin="round" d="M 6,9L 6,4L 13,4L 13,9L 23,9L 23,16L 18,16L 18,21L 11,21L 11,16L 1,16L 1,9L 6,9 Z M 16,16L 13,16L 13,19L 16,19L 16,16 Z M 8,9L 11,9L 11,6L 8,6L 8,9 Z M 6,14L 6,11L 3,11L 3,14L 6,14 Z M 18,11L 18,14L 21,14L 21,11L 18,11 Z M 13,11L 13,14L 16,14L 16,11L 13,11 Z M 8,11L 8,14L 11,14L 11,11L 8,11 Z "/>
</svg>
